source/img/telegram.svg

<svg width="20" height="18" viewBox="0 0 20 18" fill="none" xmlns="http://www.w3.org/2000/svg">
<path d="M4.81232 10.396L7.2998 16.6143L10.5382 13.3759L16.0905 17.7891L20 0.210938L0 8.54163L4.81232 10.396ZM14.285 5.25427L8.1633 10.8379L7.40082 13.7116L5.99228 10.1896L14.285 5.25427Z" fill="white"/>
</svg>

<svg width="20" height="18" fill="none" xmlns="http://www.w3.org/2000/svg"><path d="M4.812 10.396L7.3 16.614l3.238-3.238 5.552 4.413L20 .211 0 8.54l4.812 1.855zm9.473-5.142l-6.122 5.584-.762 2.874-1.409-3.522 8.293-4.936z" fill="#fff"/></svg>
